assets/images/svg/svg-twitter.svg

<svg width="18" height="18" viewBox="0 0 18 18" fill="none" xmlns="http://www.w3.org/2000/svg">
<path d="M17.82 3.52424C17.1702 3.81224 16.4736 4.00664 15.741 4.09664C16.488 3.64844 17.064 2.93744 17.334 2.09324C16.6356 2.50904 15.8616 2.81144 15.0354 2.97164C14.373 2.26604 13.428 1.82324 12.393 1.82324C10.3932 1.82324 8.77502 3.44504 8.77502 5.44484C8.77502 5.72924 8.80562 6.00644 8.86862 6.27104C5.85902 6.12164 3.18602 4.67804 1.40222 2.48384C1.09262 3.01844 0.912623 3.64304 0.912623 4.30364C0.912623 5.56004 1.55162 6.67064 2.52362 7.32044C1.93322 7.30604 1.37162 7.14044 0.885623 6.86864C0.885623 6.88304 0.885623 6.89924 0.885623 6.91364C0.885623 8.67044 2.13482 10.132 3.79082 10.465C3.48842 10.5478 3.16622 10.5928 2.83682 10.5928C2.60462 10.5928 2.37782 10.5712 2.15642 10.5262C2.61542 11.9662 3.95462 13.012 5.53862 13.0426C4.30202 14.0146 2.73962 14.5942 1.04222 14.5942C0.750623 14.5942 0.462623 14.5762 0.178223 14.542C1.77482 15.5806 3.67742 16.18 5.71862 16.18C12.3804 16.18 16.0254 10.6594 16.0254 5.86964C16.0254 5.71304 16.0218 5.55644 16.0146 5.40164C16.7166 4.88864 17.334 4.25324 17.82 3.52424ZM15.66 4.91384L15.399 5.10464L15.4134 5.42684C15.4206 5.56904 15.4242 5.71844 15.4242 5.86784C15.4242 6.99644 15.2028 8.17724 14.7888 9.28784C14.3514 10.4542 13.7232 11.509 12.9204 12.4198C12.06 13.3954 11.043 14.1586 9.88922 14.6932C8.62562 15.28 7.22342 15.5752 5.72042 15.5752C4.64042 15.5752 3.57482 15.3952 2.56142 15.0442C2.93222 14.974 3.29402 14.8714 3.64862 14.749C4.46042 14.4646 5.21462 14.0506 5.89502 13.516L7.21442 12.481L5.53682 12.4504C4.56122 12.4324 3.67922 11.95 3.13382 11.1832C3.40742 11.1652 3.67562 11.1166 3.93662 11.0446L6.20642 10.2886L3.89882 9.88184C2.79362 9.66224 1.92602 8.83964 1.60742 7.79564C1.89902 7.87124 2.18342 7.90004 2.50022 7.91984C2.50022 7.91984 3.68822 7.97204 4.58642 7.91624C4.10042 7.68404 2.85122 6.82544 2.85122 6.82544C2.01062 6.26024 1.50482 5.32244 1.50482 4.30544C1.50482 4.06604 1.53542 3.82664 1.58762 3.59444C2.40662 4.43144 3.34442 5.13164 4.39562 5.66984C5.77802 6.38444 7.27022 6.78404 8.82902 6.86144L9.62102 6.90284L9.44102 6.12884C9.38882 5.90744 9.36182 5.67704 9.36182 5.43764C9.36182 3.77804 10.719 2.42084 12.3858 2.42084C13.2192 2.42084 14.0238 2.76824 14.5908 3.37844L14.8194 3.62144L15.1452 3.55844C15.3126 3.52424 15.4782 3.48824 15.642 3.44324C15.6042 3.49544 15.4296 3.67184 15.2316 3.84644C15.0642 3.99584 14.5656 4.46384 14.5656 4.46384C14.5656 4.46384 15.0516 4.61684 15.354 4.65104C15.6564 4.68524 16.0038 4.62944 16.0614 4.62044C15.9588 4.70504 15.7716 4.83644 15.66 4.91384Z" fill="white"/>
</svg>

<svg width="18" height="18" fill="none" xmlns="http://www.w3.org/2000/svg">
  <path d="M17.82 3.524a7.32 7.32 0 0 1-2.079.573 3.64 3.64 0 0 0 1.593-2.004 7.15 7.15 0 0 1-2.299.879 3.626 3.626 0 0 0-2.642-1.149c-2 0-3.618 1.622-3.618 3.622 0 .284.03.561.094.826a10.268 10.268 0 0 1-7.467-3.787A3.63 3.63 0 0 0 2.524 7.32 3.54 3.54 0 0 1 .886 6.87v.045a3.623 3.623 0 0 0 2.905 3.551 3.621 3.621 0 0 1-1.635.061 3.624 3.624 0 0 0 3.383 2.517 7.252 7.252 0 0 1-5.36 1.499 10.124 10.124 0 0 0 5.54 1.638c6.661 0 10.306-5.52 10.306-10.31 0-.157-.003-.314-.01-.468a7.462 7.462 0 0 0 1.805-1.878Zm-2.16 1.39-.261.19.014.323c.008.142.011.291.011.44 0 1.13-.221 2.31-.635 3.42a10.052 10.052 0 0 1-1.869 3.133 9.148 9.148 0 0 1-3.03 2.273c-1.264.587-2.667.882-4.17.882-1.08 0-2.145-.18-3.159-.53a7.8 7.8 0 0 0 3.334-1.528l1.32-1.036-1.678-.03a3.012 3.012 0 0 1-2.403-1.268c.273-.018.542-.066.803-.138l2.27-.756-2.308-.407a3.023 3.023 0 0 1-2.292-2.086c.292.075.576.104.893.124 0 0 1.188.052 2.086-.004-.486-.232-1.735-1.09-1.735-1.09a3.03 3.03 0 0 1-1.263-3.232A10.814 10.814 0 0 0 4.396 5.67 10.75 10.75 0 0 0 8.829 6.86l.792.042-.18-.774a3.027 3.027 0 0 1 2.945-3.708c.833 0 1.638.347 2.205.957l.228.243.326-.063c.168-.034.333-.07.497-.115a4.125 4.125 0 0 1-.41.403c-.168.15-.666.618-.666.618s.486.153.788.187c.302.034.65-.022.707-.03a7.41 7.41 0 0 1-.401.293Z" fill="#fff"/>
</svg>
